X: 03056
T: MacINTIRE'S HARMONICA
C: Bob McQuillen 11 Mar 77
B: Bob's Note Book 03 #56
%R:reel
%D:1978
Z: 2020 John Chambers <jc:trillian.mit.edu>
M: C
L: 1/8
K: A
ed \
| c2cB ABcA | BAFA E2FG | Acef efed | cAdc B2ed |
| c2cB ABcA | BAFA EFED | CEAc dBed | c2A2 A2  :|
|: ce \
| ecfa ecAc | ecfa e2ce | abae faec | ABce B2cd |
| ecfa ecAc | ecfa e2ce | abae faed | cABG A2  :|
%%begintext align
%% For my good friend Allen MacIntire
%% with great appreciation for his beautiful
%% music.
%%endtext

%%sep 1 1 500

%%sep 1 1 500

